X:259
T: GROSSER GOTT WIR LOBEN DICH
N: B0738A
O: Europa, Mitteleuropa, Deutschland
R: Lob -, Dank - Lied, religioes
M: 3/4
L: 1/4
K: G
 | G2G | GFG | AGA | G3 |
B2B | Bcd | dcB | BAz |
G2G | GFG | AGA | G3 |
B2B | Bcd | dcB | BAz |
ABc | cBA | B2c | d3 |
e2e | dcB | cBA | G3

@@@ Tune index: 2477
